X: 36422
T: Seanamhac Tube Station
R: jig
M: 6/8
K: Adorian
|:A3 AGE|ABd e3|edB dBG|AGE DEG|
A3 AGE|ABd e2e|edB dBG|1 A2B c2B:|2 A3 ABd||
e2e edB|d2d dBd|edB dBG|AGE DEG|
e2e edB|d2d age|edB dBG|A3 ABd|
e2e edB|d2d dBd|edB dBG|AGE DE/F/G|
AGE AGE|A(B/c/d) e2e|edB dBG!coda!||A2B c2B||!coda! A3 A3||

